dist/assets/img/svg/icon-inner-04.svg

<svg width="90" height="121" viewBox="0 0 90 121" fill="none" xmlns="http://www.w3.org/2000/svg">
<g id="Group 115">
<g id="Group 22">
<path id="Vector" d="M65.8945 89.7894C65.0103 89.7894 64.1261 89.6403 63.3911 89.3526L56.3174 87.1475L50.7246 92.3035C50.5754 92.4527 50.2878 92.6018 50.1387 92.7403L58.9807 120.14C59.279 121.024 60.6 121.322 61.1859 120.577L67.663 112.331C67.9612 111.895 68.5472 111.745 68.9839 111.895L78.9978 114.845C80.0312 115.144 80.9154 114.259 80.4679 113.226L72.0733 87.2966C70.4541 88.7667 68.2489 89.8001 65.8839 89.8001L65.8945 89.7894Z" fill="#EC8020"/>
<path id="Vector_2" d="M10.8071 114.686L20.8209 111.735C21.2577 111.586 21.8543 111.735 22.1419 112.183L28.619 120.428C29.2049 121.163 30.5365 121.014 30.8242 119.981L39.6662 92.5809C39.517 92.4318 39.2294 92.2826 39.0803 92.1441L33.6259 87.1372L26.5523 89.3424C25.6681 89.6407 24.933 89.7898 24.0488 89.7898C21.6945 89.7898 19.4786 88.7565 17.8594 87.1372L9.46478 113.067C8.87886 114.1 9.76306 114.984 10.7858 114.686H10.8071Z" fill="#EC8020"/>
<path id="Vector_3" d="M63.6134 30.6755C59.3735 30.3452 55.9006 27.8205 54.3559 24.0706L54.1961 23.6871C52.5875 19.9372 48.9228 17.5083 44.864 17.5083C40.8052 17.5083 37.1193 19.9905 35.4787 23.8256L35.3828 24.0706C33.8381 27.8311 30.3652 30.3559 26.3171 30.6648C22.1943 30.9631 18.764 33.6051 17.4537 37.3976C16.1221 41.254 17.2087 45.5258 20.2448 48.285L20.5751 48.562C23.6857 51.2146 25.0067 55.316 24.016 59.2789L23.9201 59.6837C23.2809 62.6666 24.0266 65.7879 25.9655 68.1849C27.9044 70.5818 30.77 71.9667 33.8275 71.9667C35.6917 71.9667 37.5241 71.4447 39.122 70.4646L39.3777 70.3048C42.8186 68.1955 47.0905 68.1955 50.5315 70.3048L50.7658 70.454C52.3851 71.4447 54.2281 71.9774 56.103 71.9774C59.2776 71.9774 62.3137 70.4646 64.2313 67.9186C66.0956 65.4471 66.7028 62.3151 65.9038 59.3322C64.9131 55.3373 66.2234 51.2252 69.3448 48.5726C72.5513 45.952 73.7871 41.7014 72.5194 37.7278C71.241 33.7222 67.7468 30.9631 63.6241 30.6861L63.6134 30.6755ZM64.487 42.5962L55.6769 50.0853L58.468 61.2497C59.0539 63.3058 56.6996 65.0742 54.7927 63.8917L44.9493 57.8727L35.1058 63.8917C33.1989 65.0635 30.9937 63.3058 31.4305 61.2497L34.2216 50.0853L25.4115 42.5962C23.7923 41.1261 24.6765 38.4842 26.7325 38.335L38.1952 37.4508L42.6056 26.7232C43.4898 24.6672 46.2809 24.6672 47.1651 26.7232L51.5755 37.4508L63.0381 38.335C65.2433 38.4842 66.1275 41.2753 64.5083 42.5962H64.487Z" fill="#EC8020"/>
<path id="Vector_4" d="M88.724 46.8575C89.8958 45.8241 89.8958 43.9172 88.724 42.7454L81.6717 36.5773C80.7875 35.8422 80.4998 34.6704 80.9366 33.637L84.026 24.6778C84.6119 23.0585 83.5892 21.4499 81.9699 21.1516L72.5633 19.3939C71.53 19.2447 70.6564 18.3605 70.5073 17.3379L68.7389 7.9312C68.4406 6.31194 66.832 5.43839 65.2127 5.87516L56.1043 8.8154C55.071 9.11369 53.8991 8.8154 53.1641 8.08034L46.8575 0.878877C45.8241 -0.292959 43.9172 -0.292959 42.7454 0.878877L36.4281 8.08034C35.6931 8.96455 34.5212 9.25218 33.4879 8.8154L24.5287 5.72602C22.9094 5.1401 21.3008 6.16279 21.0025 7.78206L19.2447 17.1887C19.0956 18.2221 18.2114 19.0956 17.1887 19.2447L7.78206 21.0132C6.16279 21.3114 5.28924 22.9201 5.72602 24.5393L8.8154 33.4985C9.11369 34.5319 8.8154 35.7037 8.08034 36.4388L0.878877 42.7454C-0.292959 43.7787 -0.292959 45.6856 0.878877 46.8575L8.08034 53.1747C8.96455 53.9098 9.25218 55.0816 8.8154 56.115L5.72602 65.0742C5.1401 66.6935 6.16279 68.3021 7.78206 68.6004L17.1887 70.3581C18.2221 70.5073 19.0956 71.3915 19.2447 72.4142L21.0025 81.8208C21.3008 83.4401 22.9094 84.3136 24.5287 83.8768L33.4879 80.7875C34.5212 80.4892 35.6931 80.7875 36.4281 81.5225L42.7454 88.724C43.7787 89.8958 45.6856 89.8958 46.8575 88.724L53.1747 81.5225C53.9098 80.6383 55.0816 80.3507 56.115 80.7875L65.0742 83.8768C66.6935 84.4628 68.3021 83.4401 68.6004 81.8208L70.3581 72.4142C70.5073 71.3808 71.3915 70.5073 72.4142 70.3581L81.8208 68.6004C83.4401 68.3021 84.3136 66.6935 83.8768 65.0742L80.7875 56.115C80.4892 55.0816 80.7875 53.9098 81.5225 53.1747L88.724 46.8575ZM70.6458 50.128C68.1423 52.2586 67.077 55.5823 67.876 58.7889C68.8347 62.379 68.0997 66.1502 65.8519 69.133C63.5508 72.1798 59.8968 74.0015 56.083 74.0015C53.8352 74.0015 51.6194 73.3729 49.6805 72.1798L49.4462 72.0413C46.6657 70.3368 43.2035 70.3368 40.423 72.0413L40.178 72.1904C38.2498 73.3729 36.0553 74.0015 33.8075 74.0015C30.1322 74.0015 26.6806 72.3502 24.3582 69.4633C22.0252 66.5763 21.1303 62.8371 21.908 59.215L22.0145 58.7782C22.8135 55.5717 21.7482 52.2479 19.2341 50.1067L18.8825 49.8084C15.2179 46.4846 13.9076 41.3498 15.5055 36.7158C17.0928 32.1349 21.2262 28.9603 26.0307 28.6194C29.4291 28.3531 32.2308 26.3184 33.4772 23.2823L33.5838 23.0266C35.5652 18.4138 39.9862 15.4523 44.8653 15.4523C49.7444 15.4523 54.1442 18.3712 56.083 22.8881L56.2428 23.2823C57.4892 26.3184 60.3016 28.3638 63.5721 28.6088C68.7069 28.9497 72.9148 32.2734 74.4489 37.078C75.9723 41.8505 74.4809 46.9747 70.6351 50.1173L70.6458 50.128Z" fill="#EC8020"/>
</g>
</g>
</svg>

<svg width="90" height="121" fill="none" xmlns="http://www.w3.org/2000/svg"><g fill="#EC8020"><path d="M65.894 89.79c-.884 0-1.768-.15-2.503-.437l-7.074-2.206-5.592 5.156c-.15.15-.437.299-.586.437l8.842 27.4c.298.884 1.619 1.182 2.205.437l6.477-8.246c.298-.436.884-.586 1.32-.436l10.015 2.95c1.033.299 1.917-.586 1.47-1.619l-8.395-25.93c-1.619 1.47-3.824 2.504-6.19 2.504l.011-.01zm-55.087 24.896l10.014-2.951c.437-.149 1.033 0 1.32.448l6.478 8.245c.586.735 1.918.586 2.205-.447l8.842-27.4c-.149-.15-.437-.298-.586-.437l-5.454-5.007-7.074 2.205c-.884.299-1.619.448-2.503.448-2.354 0-4.57-1.034-6.19-2.653l-8.394 25.93c-.586 1.033.298 1.917 1.32 1.619h.022zm52.806-84.011c-4.24-.33-7.712-2.855-9.257-6.604l-.16-.384c-1.608-3.75-5.273-6.179-9.332-6.179-4.059 0-7.745 2.483-9.385 6.318l-.096.245a10.624 10.624 0 01-9.066 6.594c-4.123.298-7.553 2.94-8.863 6.733a10.195 10.195 0 002.79 10.887l.331.277c3.11 2.653 4.432 6.754 3.441 10.717l-.096.405a10.136 10.136 0 002.045 8.5c1.94 2.398 4.805 3.783 7.863 3.783 1.864 0 3.696-.522 5.294-1.502l.256-.16a10.621 10.621 0 0111.154 0l.234.149c1.62.99 3.462 1.523 5.337 1.523 3.175 0 6.21-1.512 8.128-4.058a9.914 9.914 0 001.673-8.587c-.99-3.995.32-8.107 3.44-10.76 3.207-2.62 4.443-6.87 3.175-10.844-1.278-4.006-4.772-6.765-8.895-7.042l-.01-.01zm.874 11.921l-8.81 7.49 2.791 11.164c.586 2.056-1.768 3.824-3.675 2.642l-9.844-6.02-9.843 6.02c-1.907 1.172-4.112-.586-3.676-2.642l2.792-11.165-8.81-7.489c-1.62-1.47-.735-4.112 1.32-4.261l11.463-.884 4.41-10.728a2.456 2.456 0 014.56 0l4.41 10.728 11.463.884c2.205.15 3.09 2.94 1.47 4.261h-.021z"/><path d="M88.724 46.858c1.172-1.034 1.172-2.94 0-4.113l-7.052-6.168c-.885-.735-1.172-1.907-.735-2.94l3.089-8.96c.586-1.619-.437-3.227-2.056-3.525l-9.407-1.758c-1.033-.15-1.907-1.034-2.056-2.056L68.74 7.93c-.298-1.62-1.907-2.493-3.526-2.056l-9.109 2.94c-1.033.299-2.205 0-2.94-.735L46.858.88c-1.034-1.172-2.94-1.172-4.113 0l-6.317 7.2c-.735.885-1.907 1.172-2.94.735l-8.96-3.089c-1.619-.586-3.227.437-3.525 2.056l-1.758 9.407c-.15 1.033-1.034 1.907-2.056 2.056l-9.407 1.768c-1.62.298-2.493 1.907-2.056 3.526l3.09 8.96c.298 1.033 0 2.205-.736 2.94l-7.2 6.306c-1.172 1.034-1.172 2.94 0 4.113l7.201 6.317c.885.735 1.172 1.907.735 2.94l-3.089 8.96c-.586 1.618.437 3.227 2.056 3.525l9.407 1.758c1.033.15 1.907 1.033 2.056 2.056l1.758 9.407c.298 1.62 1.906 2.493 3.526 2.056l8.959-3.09c1.033-.298 2.205 0 2.94.735l6.317 7.202c1.034 1.172 2.94 1.172 4.113 0l6.317-7.202c.735-.884 1.907-1.171 2.94-.735l8.96 3.09c1.618.586 3.227-.437 3.525-2.056l1.758-9.407c.15-1.033 1.033-1.907 2.056-2.056l9.407-1.758c1.62-.298 2.493-1.906 2.056-3.526l-3.09-8.959c-.298-1.033 0-2.205.735-2.94l7.202-6.317zm-18.078 3.27a8.586 8.586 0 00-2.77 8.66 11.96 11.96 0 01-2.024 10.345 12.312 12.312 0 01-9.769 4.868c-2.248 0-4.464-.628-6.402-1.821l-.235-.139a8.6 8.6 0 00-9.023 0l-.245.15a12.167 12.167 0 01-6.37 1.81 12.087 12.087 0 01-9.45-4.538 12.178 12.178 0 01-2.45-10.248l.107-.437a8.595 8.595 0 00-2.78-8.671l-.352-.299a12.254 12.254 0 01-3.377-13.092 12.041 12.041 0 0110.525-8.097c3.398-.266 6.2-2.3 7.446-5.337l.107-.255c1.981-4.613 6.402-7.575 11.281-7.575 4.88 0 9.28 2.92 11.218 7.436l.16.394a8.583 8.583 0 007.33 5.327c5.134.34 9.342 3.664 10.876 8.469 1.523 4.772.032 9.897-3.814 13.04l.01.01z"/></g></svg>46.8575L8.08034 53.1747C8.96455 53.9098 9.25218 55.0816 8.8154 56.115L5.72602 65.0742C5.1401 66.6935 6.16279 68.3021 7.78206 68.6004L17.1887 70.3581C18.2221 70.5073 19.0956 71.3915 19.2447 72.4142L21.0025 81.8208C21.3008 83.4401 22.9094 84.3136 24.5287 83.8768L33.4879 80.7875C34.5212 80.4892 35.6931 80.7875 36.4281 81.5225L42.7454 88.724C43.7787 89.8958 45.6856 89.8958 46.8575 88.724L53.1747 81.5225C53.9098 80.6383 55.0816 80.3507 56.115 80.7875L65.0742 83.8768C66.6935 84.4628 68.3021 83.4401 68.6004 81.8208L70.3581 72.4142C70.5073 71.3808 71.3915 70.5073 72.4142 70.3581L81.8208 68.6004C83.4401 68.3021 84.3136 66.6935 83.8768 65.0742L80.7875 56.115C80.4892 55.0816 80.7875 53.9098 81.5225 53.1747L88.724 46.8575ZM70.6458 50.128C68.1423 52.2586 67.077 55.5823 67.876 58.7889C68.8347 62.379 68.0997 66.1502 65.8519 69.133C63.5508 72.1798 59.8968 74.0015 56.083 74.0015C53.8352 74.0015 51.6194 73.3729 49.6805 72.1798L49.4462 72.0413C46.6657 70.3368 43.2035 70.3368 40.423 72.0413L40.178 72.1904C38.2498 73.3729 36.0553 74.0015 33.8075 74.0015C30.1322 74.0015 26.6806 72.3502 24.3582 69.4633C22.0252 66.5763 21.1303 62.8371 21.908 59.215L22.0145 58.7782C22.8135 55.5717 21.7482 52.2479 19.2341 50.1067L18.8825 49.8084C15.2179 46.4846 13.9076 41.3498 15.5055 36.7158C17.0928 32.1349 21.2262 28.9603 26.0307 28.6194C29.4291 28.3531 32.2308 26.3184 33.4772 23.2823L33.5838 23.0266C35.5652 18.4138 39.9862 15.4523 44.8653 15.4523C49.7444 15.4523 54.1442 18.3712 56.083 22.8881L56.2428 23.2823C57.4892 26.3184 60.3016 28.3638 63.5721 28.6088C68.7069 28.9497 72.9148 32.2734 74.4489 37.078C75.9723 41.8505 74.4809 46.9747 70.6351 50.1173L70.6458 50.128Z" fill="#EC8020"/>
</g>
</g>
</svg>
